assets/sonr-icons/rocket.svg

<svg xmlns="http://www.w3.org/2000/svg" width="24" height="24" fill="none" viewBox="0 0 24 24"><path fill="#000" fill-rule="evenodd" d="M21.4242 9.73564L22.2089 5.02721C22.5343 3.07775 20.8434 1.38823 18.8947 1.71201C18.8779 1.71481 18.8612 1.71803 18.8447 1.72168L14.1859 2.49814C13.4688 2.61789 12.812 2.97037 12.316 3.50016L9.0839 6.95473L6.90761 6.22929C6.27257 6.01762 5.57184 6.15141 5.05928 6.58572L2.31733 8.90583C1.192 9.85696 1.51528 11.6646 2.89301 12.1738L4.63186 12.8147C4.30576 14.2863 4.59937 15.8647 5.50556 17.1369L3.1612 19.4812C2.7863 19.8561 2.7863 20.4639 3.1612 20.8389C3.53611 21.2138 4.14395 21.2138 4.51885 20.8389L6.87714 18.4806C8.13349 19.3368 9.67235 19.6087 11.1092 19.2898L11.7501 21.0287C12.2582 22.4089 14.0679 22.7291 15.0182 21.6047L17.3397 18.8611C17.7704 18.3507 17.9071 17.6515 17.6948 17.0145L16.969 14.8371L20.4213 11.6076C20.953 11.1111 21.3056 10.4525 21.4242 9.73564ZM7.64052 8.49746L9.0839 6.95473L9.66761 7.14929C10.1706 7.31696 10.4424 7.86062 10.2748 8.36361C10.1071 8.8666 9.56343 9.13843 9.06045 8.97077L7.64052 8.49746ZM3.55713 10.3719L5.37475 11.0423C5.54666 10.7776 5.74406 10.5244 5.96701 10.2862L7.64052 8.49746L6.30045 8.05077L3.55713 10.3719ZM3.55614 10.3698L3.5557 10.371L3.55289 10.3704L3.55518 10.3722L3.55358 10.375L3.55594 10.3729L3.22503 11.273L3.55718 10.3743L3.55713 10.3719C3.5567 10.3694 3.55674 10.368 3.55674 10.368M20.3151 4.71085C20.4214 4.0746 19.8814 3.51903 19.2459 3.60067C19.2346 3.60297 19.2233 3.60507 19.2119 3.60697L15.9488 4.15081C16.642 4.69795 17.3141 5.29441 17.9589 5.93921C18.6127 6.59308 19.217 7.2752 19.7705 7.979L20.3151 4.71085ZM16.6012 7.29685C15.6771 6.37274 14.6942 5.55902 13.6747 4.85827L7.36899 11.598C6.29052 12.7505 6.13731 14.4433 6.89346 15.749L12.2812 10.3612C12.6561 9.98631 13.2639 9.98631 13.6388 10.3612C14.0138 10.7361 14.0138 11.3439 13.6388 11.7189L8.27327 17.0844C9.56436 17.7764 11.201 17.6041 12.3242 16.553L19.0593 10.2526C18.3543 9.22262 17.5339 8.22951 16.6012 7.29685ZM13.5518 20.365L12.8814 18.5463C13.1455 18.3746 13.3982 18.1775 13.636 17.955L15.4262 16.2803L15.8732 17.6213L15.8723 17.623L13.5518 20.365Z" clip-rule="evenodd"/></svg>

<svg xmlns="http://www.w3.org/2000/svg" width="24" height="24" fill="none"><path fill="currentColor" fill-rule="evenodd" d="m21.424 9.736.785-4.709c.325-1.95-1.366-3.639-3.314-3.315l-.05.01-4.66.776A3.3 3.3 0 0 0 12.317 3.5L9.084 6.955l-2.176-.726a1.92 1.92 0 0 0-1.849.357l-2.742 2.32c-1.125.951-.802 2.759.576 3.268l1.739.64a5.43 5.43 0 0 0 .874 4.323L3.16 19.48A.96.96 0 0 0 4.52 20.84l2.358-2.358a5.43 5.43 0 0 0 4.232.809l.641 1.739c.508 1.38 2.318 1.7 3.268.576l2.322-2.744c.43-.51.567-1.21.355-1.846l-.726-2.178 3.452-3.23a3.3 3.3 0 0 0 1.003-1.871M7.641 8.497l1.443-1.542.584.194a.96.96 0 0 1-.608 1.822zm-4.084 1.875 1.818.67a5.5 5.5 0 0 1 .592-.756l1.674-1.789-1.34-.446zm0-.002-.001.001h-.003l.002.001-.001.003.002-.002-.331.9.332-.899v-.006m16.758-5.657a.96.96 0 0 0-1.103-1.104l-3.263.544a23 23 0 0 1 3.821 3.828zm-3.714 2.586a21 21 0 0 0-2.926-2.439l-6.306 6.74a3.51 3.51 0 0 0-.476 4.151l5.388-5.388a.96.96 0 1 1 1.358 1.358l-5.366 5.365a3.51 3.51 0 0 0 4.051-.531l6.735-6.3a21 21 0 0 0-2.458-2.956m-3.05 13.068-.67-1.819a5.5 5.5 0 0 0 .755-.591l1.79-1.675.447 1.341v.002z" clip-rule="evenodd"/></svg>
